X: 6308
T: Carrick Lasses, The
R: jig
M: 6/8
K: Dmixolydian
|:ADD EFG|AdB ^cde|fga gfd|cAG EFG|
ADD EFG|AdB ^cde|fed cAG|ED^C D2B:|
|:d^cd FAd|aba afd|ccc EGc|agf gfg|
[1 adb age|fga gfe|fed cAG|Ad^c d3:|
[2 a3 g3|f3 efe|fed cAG|FD^C D2B||

